X:1
T:James Gibb editions
T:Ave Maria II - Palestrina
T:#
%%score [ 1 2 3 4 ]
L:1/8
Q:1/4=96
M:2/2
K:Bb
V:1 treble nm="Soprano" snm="S"
V:2 treble nm="Alto" snm="A"
V:3 treble-8 nm="Tenor" snm="T"
V:4 bass nm="Bass" snm="B"
V:1
"^Ave Maria II""^G. P. da Palestrina\n(1526-94)" G8 | G4 G4 | _A4 G4 | z8 | c4 F2 c2- | %5
w: A-|ve Ma-|ri- a,||a- ve Ma\-|
 c2 (BA Bc d2- |[M:2/2] d2 cB A4) | G8- | G4 B4 | A2 G2 A4 | G8 | z2 G4 F2 | (E3 D/C/ D2) d2- | %13
w: * ri\- * * * *||a,|* gra-|ti- a ple-|na,|Do- mi-|nus, * * * Do\-|
 d2 c2 B4 | c4 G4- | G4 z4 | z4 c4 | c4 d4 | c8 | B4 z2 c2 | d6 c2 | B2 A2 G4- | G2 G2 B2 A2 | %23
w: * mi- nus|te- cum;||be-|ne- di-|cta|tu in|mu- li-|e- ri- bus,|* in mu- li-|
 (B2 A3 G G2- | G2 ^F2 G4 | z4 c4 | B2 G2 A4 | G8 | z2 c4 =B2 | c4 c4 | c4 d4- | d2 e4 d2 | c8) | %33
w: e\- * * *|* ri- bus,|et|be- ne- di-|ctus|fru- ctus|ven- tris|tu- i,|* Je\- *||
 =B4 z4 | z2 c4 _B2 | A2 (d4 c2) | d4 (B4 | c2) B2 c4 | d8- | d8 | z2 d2 c2 d2 | B4 A4 | B4 A2 B2 | %43
w: sus.|San- cta|Ma- ri\- *|a, Ma\-|* ter De-|i,||o- ra pro|no- bis,|o- ra pro|
 G4 ^F2 (F2 | G2) =F2 G4 | A2 (A2 B2) A2 | (B2 c3 B B2- | B2 AG A4) | B4 z4 | B4 B2 B2 | e4 d4- | %51
w: no- bis, Ma\-|* ter De-|i, Ma\- * ter|De\- * * *||i,|o- ra pro|no- bis|
 d4 c4- | c2 B2 A2 A2 | G2 G4 G2 | c2 c2 =B4 | z2 =B2 c2 c2 | e4 d2 d2- | d2 e4 (c2- | c2 f3 edc | %59
w: * pec\-|* ca- to- ri-|bus, pec- ca-|to- ri- bus,|nunc et in|ho- ra mor\-|* tis no\-||
 B=AGA Bc d2- | dc c4 =B2) | c4 z2 =B2 | c2 c2 e4 | d2 d4 e2- | e2 (c4 f2- | fedc BAGA | %66
w: ||strae, nunc|et in ho-|ra mor- tis|* no\- *||
 Bc d3 c) c2- | c2[Q:1/4=95] (=B[Q:1/4=94]A[Q:1/4=93] B4) |[Q:1/4=89] c8- |[Q:1/4=84] c8 | %70
w: * * * * strae.|* A\- * *|men.||
[Q:1/4=82] c8 |] %71
w: |
V:2
 E8 | B,8 | C8 | (G8 | _A8) | G4 z2 G2 |[M:2/2] F2 E2 (F4 | G3 F E2 D2 | E3 D/C/ B,CDE | %9
w: A-|ve|Ma-|ri\-||a, gra-|ti- a ple\-|||
 F2 G2 F3 E) | D4 z4 | z8 | z4 G4 | F2 E2 D4 | C4 z4 | z4 G4 | G4 _A4 | G4 F2 B2- | %18
w: |na,||Do-|mi- nus te-|cum;|be-|ne- di-|cta tu, be\-|
 B2 (AG A2) F2- | F2 =E2 F4 | z2 F2 G4- | G2 F2 E2 D2 | E2 E2 F4- | F2 E2 D4 | C4 D2 G2 | %25
w: * ne\- * * di\-|* cta tu|in mu\-|* li- e- ri-|bus, in mu\-|* li- e-|ri- bus, et|
 F2 D2 E4 | D8 | z4 z2 G2- | G2 G2 (G3 F | =E2) F2 G4 | A4 (B4- | B2 G2) G4- | G8 | z2 G2 F2 G2 | %34
w: be- ne- di-|ctus|fru\-|* ctus ven\- *|* tris tu-|i, Je\-|* * sus.||San- cta Ma-|
 E4 D4- | D4 z4 | z2 (F4 G2- | G2) F2 (G2 A2) | B2 (F2 B2) A2- | A2 (G4 ^F2) | G4 z4 | z2 G4 ^F2 | %42
w: ri- a,||Ma\- *|* ter De\- *|i, Ma\- * ter|* De\- *|i,|o- ra|
 G2 (E3 D D2- | D2 C2) D2 D2- | D2 C2 (D2 =E2 | F4) D4 | z2 F4 F2 | F8 | D2 D2 D2 D2 | G4 F2 B2 | %50
w: pro no\- * *|* * bis, Ma\-|* ter De\- *|* i,|Ma- ter|De-|i, o- ra pro|no- bis, o-|
 B2 B2 B4 | B4 A2 G2 | (A2 G4 ^F2 | G3 =F E2 D2) | C4 D4 | z2 G2 G2 G2 | G2 A2 B4- | B4 E4 | (_A8 | %59
w: ra pro no-|bis pec- ca-|to\- * *||ri- bus,|nunc et in|ho- ra mor\-|* tis|no\-|
 G8 | E2 F2) G4- | G4 z2 G2 | G2 G2 G2 A2 | B8 | E4 (_A4- | A4 G4- | G4 E2 F2) | G8 | z2 (G4 _A2- | %69
w: |* * strae,|* nunc|et in ho- ra|mor-|tis no\-|||strae.|A\- *|
 A2 G2 !courtesy!_A4) | G8 |] %71
w: |men.|
V:3
 c8 | d6 e2 | (f6 ed | e2 dc d2 e2 | f6 e2 | d4) G4 |[M:2/2][K:treble-8] z8 | d4 c2 B2 | c4 d2 B2 | %9
w: A-|ve Ma-|ri\- * *|||* a,||gra- ti- a|ple- na, gra-|
 c2 e2 d2 (c2- | c2 BA B2) d2- | d2 c2 B4 | c4 G4 | z4 z2 (g2- | gf e4) d2 | (e6 dc | %16
w: ti- a ple- na,|* * * * Do\-|* mi- nus|te- cum,|Do\-|* * * mi-|nus * *|
 d2) =e2 f2 f2- | f2 _e2 d2 B2 | f4 f3 e | (dc B4) A2 | B4 z4 | z8 | c4 d4- | d2 c2 B4 | A4 G4 | %25
w: * te- cum; be\-|* ne- di- cta|tu, be- ne-|di\- * * cta|tu||in mu\-|* li- e-|ri- bus,|
 z8 | g4 f2 d2 | (e4 d3 c/d/ | e4) d4 | z2 f4 =e2 | f2 f2 f4 | B4 (c2 d2 | e8) | d4 z2 z2 | z4 g4 | %35
w: |et be- ne-|di\- * * *|* ctus|fru- ctus|ven- tris tu-|i, Je\- *||sus.|San-|
 f2 g2 e4 | d2 B4 (e2- | e2 d2) (e2 f2- | fedc d3 c | B2 AG A4) | G2 g2 e2 f2 | g4 d4- | %42
w: cta Ma- ri-|a, Ma- ter|* * De\- *|||i, o- ra pro|no- bis,|
 d2 B2 c2 B2 | (B2 AG) A2 (A2 | B2) A2 (B2 c2) | F4 z2 (f2 | d2) c2 d4 | c8 | z2 B2 B2 B2 | %49
w: * o- ra pro|no\- * * bis, Ma\-|* ter De\- *|i, Ma\-|* ter De-|i,|o- ra pro|
 e4 d2 g2 | g2 g2 f4 | f2 f4 e2 | (f2 g2 d4 | e2 cd ef g2- | g2 ^f2 g4 | z2 d2 e2 e2 | e4 f4 | %57
w: no- bis, o-|ra pro no-|bis pec- ca-|to\- * *||* ri- bus,|nunc et in|ho- ra|
 g4 c4 | c4 f3 e | dcBA G2 B2 | c4 d4) | c4 z2 d2 | e2 e2 e4 | f4 g4 | c4 (c4 | f3 e dcBA | %66
w: mor- tis|no\- * *|||strae, nunc|et in ho-|ra mor-|tis no\-||
 G2 B2 c4 | d8) | c2 (c4 f2- | f2 =e2 f4) | =e8 |] %71
w: ||strae. A\- *||men.|
V:4
 C,8 | G,4 G,4 | F,4 C,2 C2 | (C2 =B,A, B,2) C2 | F,8 | G,4 z2 G,2 |[M:2/2] B,2 C2 D4 | G,4 z4 | %8
w: A-|ve Ma-|ri- a, a-|ve * * * Ma-|ri-|a, gra-|ti- a ple-|na,|
 z4 G,4 | F,2 E,2 F,4 | G,4 G,4 | F,2 E,2 D,4 | C,2 C2 B,2 G,2 | (B,2 C2) G,4 | z2 C2 C2 =B,2 | %15
w: gra-|ti- a ple-|na, Do-|mi- nus te-|cum, Do- mi- nus|te\- * cum,|Do- mi- nus|
 (C6 _B,A, | G,F, G,2 F,4) | C,4 z4 | F,4 F,4 | G,4 F,4 | B,,2 B,2 B,2 C2 | D2 D2 G,4 | z8 | z8 | %24
w: te\- * *||cum;|be- ne-|di- cta|tu in mu- li-|e- ri- bus,|||
 z2 C2 B,2 G,2 | (A,2 B,2 C4) | G,4 z4 | z2 C4 =B,2 | C4 G,4 | C2 F,2 C4 | F,4 (B,3 A, | %31
w: et be- ne-|di\- * *|tus|fru- ctus|ven- tris|tu- i, Je-|sus, Je\- *|
 G,F,E,D, C,2 =B,,2 | C,8) | G,2 G,2 A,2 B,2 | C4 G,4 | z2 B,2 C4 | B,4 z4 | z4 z2 (F,2 | %38
w: ||sus. San- cta Ma-|ri- a,|Ma- ri-|a,|Ma\-|
 B,3 A,) G,2 F,2 | (G,4 D,4) | G,4 z4 | z8 | G,4 F,2 G,2 | E,4 D,4 | z8 | z2 (F,2 G,2) F,2 | %46
w: * * * ter|De\- *|i,||o- ra pro|no- bis,||Ma\- * ter|
 (G,2 A,2 B,4) | F,8 | G,4 G,2 G,2 | E,4 B,2 E,2 | E,2 E,2 B,4 | B,4 z4 | z8 | C6 B,2 | %54
w: De\- * *|i,|o- ra pro|no- bis, o-|ra pro no-|bis||pec- ca-|
 A,2 A,2 G,4 | z2 G,2 C2 C2 | C4 B,4 | G,4 _A,4 | F,4 F,4 | G,6 G,2 | (_A,4 G,4) | C,4 z2 G,2 | %62
w: to- ri- bus,|nunc et in|ho- ra|mor- tis|no- strae,|mor- tis|no\- *|strae, nunc|
 C2 C2 C4 | B,4 G,4 | _A,4 F,4 | F,4 G,4- | G,2 G,2 _A,2 A,2 | G,8 | C,4 z2 (F,2 | C4 F,4) | C,8 |] %71
w: et in ho-|ra mor-|tis no-|strae, mor\-|* tis nos- trae.|A-|men. A\-||men.|

